resources/frontend_client/app/assets/img/dash_empty_state.svg

<svg height="89" viewBox="0 0 104 89" width="104" xmlns="http://www.w3.org/2000/svg"><g fill="none" fill-rule="evenodd"><path d="m3 3h39v52h-39z" fill="#81bdf2" stroke="#509ee3" stroke-width="3"/><path d="m8 9h8v10h-8zm12 0h8v10h-8zm-12 30h8v10h-8zm12 0h8v10h-8zm12-30h8v10h-8zm-24 15h20v10h-20zm24 0h8v25h-8z" fill="#7ab9f0"/><path d="m14 6h53v65h-53z" fill="#6fb0eb"/><path d="m21 13h39v52h-39z" fill="#81bdf2" stroke="#509ee3" stroke-width="3"/><path d="m26 18h8v10h-8zm12 0h8v10h-8zm-12 30h8v10h-8zm12 0h8v10h-8zm12-30h8v10h-8zm-24 15h20v10h-20zm24 0h8v25h-8z" fill="#72b4ee"/><path d="m33 16h53v66h-53z" fill="#6fb0eb"/><path d="m37 20h45v58h-45z" fill="#88c2f5" stroke="#509ee3" stroke-width="3"/><path d="m45 29h8v10h-8zm12 0h8v10h-8zm-12 30h8v10h-8zm12 0h8v10h-8zm12-30h8v10h-8zm-24 15h20v10h-20zm24 0h8v25h-8z" fill="#6cb0eb"/><path d="m52 26h53v66h-53z" fill="#6fb0eb"/><path d="m57 30h45v58h-45z" fill="#88c2f5" stroke="#509ee3" stroke-width="3"/><path d="m64 39h8v10h-8zm12 0h8v10h-8zm-12 30h8v10h-8zm12 0h8v10h-8zm12-30h8v10h-8zm-24 15h20v10h-20zm24 0h8v25h-8z" fill="#5da7e6"/></g></svg>

<?xml version="1.0" encoding="UTF-8" standalone="no"?>
<svg width="104px" height="89px" viewBox="0 0 104 89" version="1.1" xmlns="http://www.w3.org/2000/svg" xmlns:xlink="http://www.w3.org/1999/xlink" xmlns:sketch="http://www.bohemiancoding.com/sketch/ns">
    <!-- Generator: Sketch 3.3.3 (12072) - http://www.bohemiancoding.com/sketch -->
    <title>full opacity</title>
    <desc>Created with Sketch.</desc>
    <defs></defs>
    <g id="Page-1" stroke="none" stroke-width="1" fill="none" fill-rule="evenodd" sketch:type="MSPage">
        <g id="full-opacity" sketch:type="MSArtboardGroup">
            <rect id="bg" stroke="#509EE3" stroke-width="3" fill="#81BDF2" sketch:type="MSShapeGroup" x="3" y="3" width="39" height="52"></rect>
            <path d="M8,9 L16,9 L16,19 L8,19 L8,9 Z M20,9 L28,9 L28,19 L20,19 L20,9 Z M8,39 L16,39 L16,49 L8,49 L8,39 Z M20,39 L28,39 L28,49 L20,49 L20,39 Z M32,9 L40,9 L40,19 L32,19 L32,9 Z M8,24 L28,24 L28,34 L8,34 L8,24 Z M32,24 L40,24 L40,49 L32,49 L32,24 Z" id="Rectangle-696" fill="#7AB9F0" sketch:type="MSShapeGroup"></path>
            <rect id="bg-copy" fill="#6FB0EB" sketch:type="MSShapeGroup" x="14" y="6" width="53" height="65"></rect>
            <rect id="bg" stroke="#509EE3" stroke-width="3" fill="#81BDF2" sketch:type="MSShapeGroup" x="21" y="13" width="39" height="52"></rect>
            <path d="M26,18 L34,18 L34,28 L26,28 L26,18 Z M38,18 L46,18 L46,28 L38,28 L38,18 Z M26,48 L34,48 L34,58 L26,58 L26,48 Z M38,48 L46,48 L46,58 L38,58 L38,48 Z M50,18 L58,18 L58,28 L50,28 L50,18 Z M26,33 L46,33 L46,43 L26,43 L26,33 Z M50,33 L58,33 L58,58 L50,58 L50,33 Z" id="Rectangle-696" fill="#72B4EE" sketch:type="MSShapeGroup"></path>
            <rect id="bg-copy-2" fill="#6FB0EB" sketch:type="MSShapeGroup" x="33" y="16" width="53" height="66"></rect>
            <rect id="Rectangle-252-Copy-2" stroke="#509EE3" stroke-width="3" fill="#88C2F5" sketch:type="MSShapeGroup" x="37" y="20" width="45" height="58"></rect>
            <path d="M45,29 L53,29 L53,39 L45,39 L45,29 Z M57,29 L65,29 L65,39 L57,39 L57,29 Z M45,59 L53,59 L53,69 L45,69 L45,59 Z M57,59 L65,59 L65,69 L57,69 L57,59 Z M69,29 L77,29 L77,39 L69,39 L69,29 Z M45,44 L65,44 L65,54 L45,54 L45,44 Z M69,44 L77,44 L77,69 L69,69 L69,44 Z" id="Rectangle-696" fill="#6CB0EB" sketch:type="MSShapeGroup"></path>
            <rect id="bg-copy-3" fill="#6FB0EB" sketch:type="MSShapeGroup" x="52" y="26" width="53" height="66"></rect>
            <rect id="Rectangle-252-Copy-3" stroke="#509EE3" stroke-width="3" fill="#88C2F5" sketch:type="MSShapeGroup" x="57" y="30" width="45" height="58"></rect>
            <path d="M64,39 L72,39 L72,49 L64,49 L64,39 Z M76,39 L84,39 L84,49 L76,49 L76,39 Z M64,69 L72,69 L72,79 L64,79 L64,69 Z M76,69 L84,69 L84,79 L76,79 L76,69 Z M88,39 L96,39 L96,49 L88,49 L88,39 Z M64,54 L84,54 L84,64 L64,64 L64,54 Z M88,54 L96,54 L96,79 L88,79 L88,54 Z" id="Rectangle-696" fill="#5DA7E6" sketch:type="MSShapeGroup"></path>
        </g>
    </g>
</svg>
